portfolio/img/github.svg

<svg width="50" height="50" viewBox="0 0 50 50" fill="none" xmlns="http://www.w3.org/2000/svg">
<path d="M24.9033 0C11.1514 0 0 11.4612 0 25.5996C0 36.9104 7.13555 46.5062 17.0305 49.8912C18.275 50.1281 18.732 49.3359 18.732 48.6597C18.732 48.0493 18.7088 46.0326 18.6982 43.8935C11.7699 45.4421 10.308 40.8731 10.308 40.8731C9.1752 37.9141 7.54297 37.1274 7.54297 37.1274C5.28359 35.5385 7.71328 35.571 7.71328 35.571C10.2141 35.7517 11.5309 38.2092 11.5309 38.2092C13.752 42.1229 17.3566 40.9913 18.7777 40.3374C19.0012 38.6826 19.6467 37.5535 20.3588 36.9142C14.8275 36.2667 9.0127 34.0717 9.0127 24.2627C9.0127 21.4679 9.98555 19.1841 11.5787 17.3914C11.3201 16.7465 10.4678 14.1429 11.8199 10.6167C11.8199 10.6167 13.9111 9.92865 18.6701 13.2408C20.6564 12.6734 22.7869 12.3891 24.9033 12.3795C27.0197 12.3891 29.1518 12.6734 31.142 13.2408C35.8953 9.92865 37.9836 10.6167 37.9836 10.6167C39.3391 14.1429 38.4863 16.7465 38.2277 17.3914C39.8244 19.1841 40.7906 21.4677 40.7906 24.2627C40.7906 34.095 34.9648 36.2601 29.4195 36.8937C30.3127 37.6882 31.1086 39.2462 31.1086 41.6344C31.1086 45.0596 31.0797 47.8164 31.0797 48.6597C31.0797 49.3409 31.5279 50.1392 32.7904 49.8878C42.6799 46.499 49.8064 36.9066 49.8064 25.5996C49.8064 11.4612 38.6566 0 24.9033 0Z" fill="#fff"/>
<path d="M9.32716 36.4673C9.27247 36.5944 9.07755 36.6325 8.9004 36.5454C8.71974 36.4619 8.61817 36.2884 8.67677 36.1607C8.73048 36.0298 8.9254 35.9933 9.10567 36.0812C9.28673 36.1645 9.38985 36.3396 9.32716 36.4673ZM10.5522 37.5908C10.4334 37.7041 10.2012 37.6515 10.0436 37.4726C9.88067 37.2941 9.85021 37.0556 9.97071 36.9405C10.0932 36.8275 10.3184 36.8803 10.4817 37.059C10.6445 37.2395 10.6762 37.4766 10.552 37.591M11.3926 39.0284C11.2399 39.1374 10.9902 39.0352 10.8361 38.8075C10.6836 38.58 10.6836 38.307 10.8395 38.1976C10.9942 38.0881 11.2399 38.1865 11.3961 38.4124C11.5484 38.6439 11.5484 38.9169 11.3924 39.0286M12.8137 40.6934C12.6772 40.848 12.3865 40.8066 12.1736 40.5954C11.9561 40.389 11.8953 40.0961 12.0322 39.9413C12.1703 39.7863 12.4627 39.8299 12.6772 40.0393C12.8934 40.2453 12.9594 40.5404 12.8139 40.6934M14.6504 41.2555C14.5904 41.4559 14.3104 41.5471 14.0283 41.4619C13.7467 41.3742 13.5623 41.1393 13.6192 40.9367C13.6777 40.7349 13.959 40.64 14.2432 40.7311C14.5244 40.8185 14.7092 41.0516 14.6506 41.2555M16.741 41.4939C16.7481 41.7051 16.5088 41.8802 16.2127 41.884C15.9149 41.8906 15.674 41.7197 15.6709 41.5121C15.6709 41.2989 15.9047 41.1254 16.2024 41.1204C16.4984 41.1144 16.741 41.2841 16.741 41.4939ZM18.7945 41.413C18.8301 41.6189 18.6242 41.8306 18.3303 41.8868C18.0412 41.941 17.7736 41.8139 17.7367 41.6097C17.7008 41.3985 17.9106 41.1871 18.199 41.1323C18.4936 41.0797 18.757 41.2035 18.7945 41.413Z" fill="#161614"/>
</svg>

<svg width="50" height="50" fill="none" xmlns="http://www.w3.org/2000/svg"><path d="M24.903 0C11.151 0 0 11.461 0 25.6 0 36.91 7.136 46.506 17.03 49.89c1.245.237 1.702-.555 1.702-1.231 0-.61-.023-2.627-.034-4.766-6.928 1.548-8.39-3.02-8.39-3.02-1.133-2.96-2.765-3.747-2.765-3.747-2.26-1.589.17-1.556.17-1.556 2.501.18 3.818 2.638 3.818 2.638 2.221 3.914 5.826 2.782 7.247 2.128.223-1.654.869-2.784 1.58-3.423-5.53-.647-11.345-2.842-11.345-12.651 0-2.795.973-5.079 2.566-6.872-.259-.644-1.111-3.248.24-6.774 0 0 2.092-.688 6.851 2.624 1.986-.568 4.117-.852 6.233-.861 2.117.01 4.249.293 6.239.86 4.753-3.311 6.842-2.623 6.842-2.623 1.355 3.526.502 6.13.244 6.774 1.596 1.793 2.563 4.077 2.563 6.872 0 9.832-5.826 11.997-11.371 12.63.893.795 1.689 2.353 1.689 4.741 0 3.426-.03 6.182-.03 7.026 0 .68.449 1.48 1.711 1.228 9.89-3.389 17.016-12.981 17.016-24.288C49.806 11.46 38.656 0 24.903 0Z" fill="#fff"/><path d="M9.327 36.467c-.055.127-.25.166-.427.078-.18-.083-.282-.257-.223-.384.053-.131.248-.168.429-.08.18.083.284.259.221.386Zm1.225 1.124c-.119.113-.35.06-.508-.118-.163-.179-.194-.417-.073-.532.122-.114.347-.06.51.118.164.18.195.418.071.532m.84 1.437c-.152.11-.402.007-.556-.22-.152-.228-.152-.501.003-.61.155-.11.4-.011.557.214.152.232.152.505-.004.617m1.422 1.664c-.137.155-.428.114-.64-.098-.218-.206-.279-.499-.142-.654.138-.155.43-.111.645.098.216.206.282.501.137.654m1.836.563c-.06.2-.34.291-.622.206-.281-.088-.466-.323-.409-.525.059-.202.34-.297.624-.206.281.087.466.32.408.524m2.09.239c.007.211-.232.386-.528.39-.298.007-.539-.164-.542-.372 0-.213.234-.387.531-.392.296-.006.539.164.539.374Zm2.053-.081c.036.206-.17.418-.464.474-.289.054-.556-.073-.593-.277-.036-.212.174-.423.462-.478.295-.052.558.072.595.281Z" fill="#161614"/></svg>
